src/icons/solid/users/login.svg

<svg width="24" height="24" viewBox="0 0 24 24" fill="none" xmlns="http://www.w3.org/2000/svg">
<g clip-path="url(#clip0_4550_413)">
<path d="M15.1827 3C16.3456 3.05805 17.2207 3.99301 17.171 5.08203V10.8359H14.2276C14.4462 10.489 14.5654 10.1038 14.5655 9.68945C14.5655 9.11116 14.3277 8.5707 13.9102 8.15625C13.5448 7.79354 13.0647 7.5793 12.5508 7.53125L12.3292 7.52051C11.7327 7.52051 11.1756 7.75144 10.7481 8.15625L7.32819 11.4727C7.11967 11.6749 6.95114 11.9158 6.84186 12.1758C6.73251 12.4457 6.67291 12.7255 6.67291 13.0146C6.67294 13.3037 6.73253 13.5836 6.84186 13.8438C6.95117 14.1133 7.11967 14.3446 7.32819 14.5469L10.7383 17.8525C11.1559 18.267 11.7229 18.4893 12.3194 18.4893C12.9158 18.4892 13.4721 18.2573 13.8995 17.8525C14.3269 17.4477 14.5557 16.8986 14.5557 16.3203C14.5557 15.906 14.4364 15.5111 14.2178 15.1738H17.1602V20.957C17.2097 22.0075 16.3352 22.9422 15.212 23H3.98834C2.82524 22.9422 1.95036 22.0071 2.00006 20.918V5.04297C1.95061 3.99263 2.82524 3.05798 3.94831 3H15.1827Z" fill="#3C3B44"/>
<path d="M11.7921 9.17871C12.0804 8.89919 12.5575 8.89919 12.8458 9.17871C13.1338 9.45825 13.134 9.92076 12.8458 10.2002L10.6983 12.2822H23.254L23.4034 12.2969C23.741 12.3651 24.0001 12.6592 24.0001 13.0049C24 13.4 23.6615 13.7275 23.254 13.7275H10.6983L12.8458 15.8096C13.134 16.089 13.1339 16.5515 12.8458 16.8311C12.6966 16.9756 12.5073 17.043 12.3184 17.043C12.1297 17.0429 11.9411 16.9755 11.7921 16.8311L8.37213 13.5156C8.30255 13.4482 8.25272 13.3709 8.21295 13.2842C8.17325 13.1975 8.15339 13.1012 8.15338 13.0049C8.15338 12.9086 8.17327 12.8123 8.21295 12.7256C8.24277 12.6389 8.30257 12.5616 8.37213 12.4941L11.7921 9.17871Z" fill="#3C3B44"/>
</g>
<defs>
<clipPath id="clip0_4550_413">
<rect width="24" height="24" fill="white"/>
</clipPath>
</defs>
</svg>

<svg xmlns="http://www.w3.org/2000/svg" width="24" height="24" fill="none" viewBox="0 0 24 24"><g fill="currentColor" clip-path="url(#a)"><path d="M15.183 3c1.163.058 2.038.993 1.988 2.082v5.754h-2.943c.218-.347.337-.732.338-1.147a2.15 2.15 0 0 0-.656-1.533 2.2 2.2 0 0 0-1.36-.625l-.22-.01a2.3 2.3 0 0 0-1.582.635l-3.42 3.317a2.2 2.2 0 0 0-.486.703 2.14 2.14 0 0 0 0 1.668c.11.27.278.5.486.703l3.41 3.305a2.23 2.23 0 0 0 1.581.637c.597 0 1.153-.232 1.58-.637a2.1 2.1 0 0 0 .657-1.532 2.1 2.1 0 0 0-.338-1.146h2.942v5.783c.05 1.05-.825 1.985-1.948 2.043H3.988C2.825 22.942 1.95 22.007 2 20.918V5.043C1.95 3.993 2.825 3.058 3.948 3z"/><path d="M11.792 9.179a.767.767 0 0 1 1.054 0 .71.71 0 0 1 0 1.021l-2.148 2.082h12.556l.15.015a.736.736 0 0 1 .596.708c0 .395-.338.722-.746.722H10.698l2.148 2.083a.71.71 0 0 1 0 1.021.75.75 0 0 1-.528.212.75.75 0 0 1-.526-.212l-3.42-3.315a.8.8 0 0 1-.16-.232.67.67 0 0 1 0-.558.6.6 0 0 1 .16-.232z"/></g><defs><clipPath id="a"><path fill="currentColor" d="M0 0h24v24H0z"/></clipPath></defs></svg>
